X:1
T:Pomp and Circumstance
T:Pomp and Circumstance
T:Edward Elgar, Op. 39 Arr.: Lorenz Stechauner
T:March No. 5 in C
C:Edward Elgar
%%score { 1 | 2 }
L:1/8
Q:1/4=100
M:4/4
K:C
V:1 treble nm="Piano" snm="Pno."
V:2 bass 
V:1
!mf! c4 Bc d2 | A4 G4 | F4 EF G2 | D8 | E4 ^FG A2 | d4 G4 | c4 cB A2 |!<(! G6 D2!<)! || %8
!f!"^A" [Gc]4 [GB][Ac] [Bd]2 | [EA]4 [EG]4 | [CF]4 [CE][DF] [EG]2 | [A,D]8 | %12
 [CE]4 [D^F][EG] [FA]2 | [Bd]4 [DG]4 | [cf]4 [cf][ce] [Bd]2 | [ce]8 | [FA]4 [GB][Ac] [Bd]2 | %17
 [EG]4 [Ac]4 | [Ac]4 [cf][ce] [Bd]2 |!<(! [Gc]6 [Ad]2!<)! ||[K:G]"^B"!ff! [dg]4 [df][eg] [fa]2 | %21
 [Be]4 [Bd]4 | [Gc]4 [GB][Ac] [Bd]2 | [EA]8 | [GB]4 [A^c][Bd] [ce]2 | [fa]4 [Bd]4 | %26
 [eg]4 [eg][df] [^ce]2 | [Ad]8 ||"^C" [Gdg]4 [Fdf][Gdg] [Afa]2 | [EBe]4 [DBd]4 | %30
 [CGc]4 [B,GB][CAc] [DBd]2 | [A,EA]8 | [B,GB]4 [^CA^c][DBd] [Ece]2 | [Afa]4 [DAd]4 | %34
 [CAc]4 [CAc][B,GB] [A,FA]2 | [B,GB]8 | [Ece]4 [Fdf][Geg] [Afa]2 | [B,Bd]4 [Geg]4 | %38
 [cac']4 [cac'][Bgb] [Afa]2 | [Gdg]2 !^![Gdg]!^![Gdg] !^![Gdg]4 |] %40
V:2
!mp! C,2 C,2 D,2 D,2 | E,2 E,2 E,2 E,2 | A,,2 A,,2 G,,2 G,,2 | ^F,,2 F,,2 G,,2 G,,2 | %4
 C,2 C,2 C,2 C,2 | B,,2 B,,2 E,,2 E,,2 | A,,2 A,,2 D,,2 D,,2 |!<(! G,,2 ^F,,2 =F,,2 D,2!<)! || %8
!mf! C,2 C,2 D,2 D,2 | E,2 E,2 E,2 E,2 | A,,2 A,,2 G,,2 G,,2 | ^F,,2 F,,2 G,,2 G,,2 | %12
 C,2 C,2 C,2 C,2 | B,,2 B,,2 B,,2 B,,2 | A,,2 A,,2 G,,2 G,,2 | C,2 C,2 C,2 C,2 | %16
 F,,2 F,,2 F,,2 F,,2 | E,,2 E,,2 A,,2 A,,2 | D,,2 D,,2 G,,2 G,,2 |!<(! C,2 B,,2 A,,2 D,,2!<)! || %20
[K:G]!f! [G,,G,]2 [G,,G,]2 [A,,A,]2 [A,,A,]2 | [B,,B,]2 [B,,B,]2 [G,,G,]2 [G,,G,]2 | %22
 [C,,C,]2 [C,,C,]2 [D,,D,]2 [D,,D,]2 | [E,,E,]2 [E,,E,]2 [D,,D,]2 [D,,D,]2 | %24
 [G,,G,]2 [G,,G,]2 [G,,G,]2 [G,,G,]2 | [^F,,^F,]2 [F,,F,]2 [B,,B,]2 [B,,B,]2 | %26
 [E,,E,]2 [E,,E,]2 [A,,A,]2 [A,,A,]2 | [D,,D,]2 [D,,D,]2 [D,,D,]2 [D,,D,]2 || %28
 [G,,G,]2 [G,,G,]2 [A,,A,]2 [A,,A,]2 | [B,,B,]2 [B,,B,]2 [G,,G,]2 [G,,G,]2 | %30
 [E,,E,]2 [E,,E,]2 [D,,D,]2 [D,,D,]2 | [^C,,^C,]2 [C,,C,]2 [D,,D,]2 [D,,D,]2 | %32
 [G,,G,]2 [G,,G,]2 [G,,G,]2 [G,,G,]2 | [^F,,^F,]2 [F,,F,]2 [F,,F,]2 [F,,F,]2 | %34
 [E,,E,]2 [E,,E,]2 [D,,D,]2 [D,,D,]2 | [G,,G,]2 [G,,G,]2 [G,,G,]2 [G,,G,]2 | %36
 [C,C]2 [C,C]2 [C,C]2 [C,C]2 | [B,,B,]2 [B,,B,]2 [E,,E,]2 [E,,E,]2 | %38
 [A,,A,]2 [A,,A,]2 [D,,D,]2 [D,,D,]2 | [G,,G,]2 !^![G,,G,]!^![G,,G,] !^![G,,G,]4 |] %40

